dist/images/FB_v2.svg

<svg width="28" height="28" viewBox="0 0 28 28" fill="none" xmlns="http://www.w3.org/2000/svg">
<path fill-rule="evenodd" clip-rule="evenodd" d="M14 28C21.7319 28 28 21.7319 28 14C28 6.26807 21.7319 0 14 0C6.26807 0 0 6.26807 0 14C0 21.7319 6.26807 28 14 28ZM17.3691 12.2788L16.9753 14.7812H14.943V20.834H12.2135V14.7812H10V12.2788H12.2135V10.3706C12.2135 8.2002 13.5172 7 15.514 7C16.1738 7.0083 16.832 7.06445 17.4834 7.16797V9.29932H16.3649C15.2817 9.29932 14.943 9.96777 14.943 10.6519V12.2788H17.3691Z" fill="#D9D9D9"/>
</svg>

<svg width="28" height="28" viewBox="0 0 28 28" fill="none" xmlns="http://www.w3.org/2000/svg"><path fill-rule="evenodd" clip-rule="evenodd" d="M14 28c7.732 0 14-6.268 14-14S21.732 0 14 0 0 6.268 0 14s6.268 14 14 14zm3.37-15.721l-.395 2.502h-2.032v6.053h-2.73v-6.053H10V12.28h2.213v-1.91c0-2.17 1.305-3.37 3.301-3.37.66.008 1.318.064 1.97.168v2.131h-1.12c-1.082 0-1.421.669-1.421 1.353v1.627h2.426z" fill="#D9D9D9"/></svg>
